app/images/box.svg

<svg width="18" height="17" viewBox="0 0 18 17" fill="none" xmlns="http://www.w3.org/2000/svg">
<path d="M11.1708 3.14282H17.0714V15.1641C17.0714 15.6815 16.6056 16 16.1009 16H1.89286C1.3882 16 1 15.6019 1 15.0844V3.14282H6.82298" stroke="#2F3035" stroke-width="1.5" stroke-miterlimit="10"/>
<path d="M11.3853 3.14286H17.0165C17.0553 3.14286 17.0942 3.11088 17.0553 3.07889L14.9582 1H3.11323L1.01609 3.07889C0.97725 3.11088 1.01609 3.14286 1.05492 3.14286H6.68614" stroke="#2F3035" stroke-width="1.5" stroke-miterlimit="10"/>
<path d="M11.7141 3.14286L10.7824 1H7.38178L6.35693 3.14286" stroke="#2F3035" stroke-width="1.5" stroke-miterlimit="10"/>
<path d="M11.7141 3.14282V7.42854L9.10419 5.92274L6.35693 7.42854V3.14282" stroke="#2F3035" stroke-width="1.5" stroke-miterlimit="10"/>
<path d="M10.9864 11.7143H7.1218C6.67898 11.7143 6.35693 11.276 6.35693 10.7889V10.4967C6.35693 9.96102 6.71924 9.57141 7.1218 9.57141H10.9461C11.389 9.57141 11.711 10.0097 11.711 10.4967V10.7889C11.7513 11.3247 11.389 11.7143 10.9864 11.7143Z" stroke="#2F3035" stroke-width="1.5" stroke-miterlimit="10"/>
</svg>

<svg width="18" height="17" viewBox="0 0 18 17" xmlns="http://www.w3.org/2000/svg" fill="none"><path d="M11.171 3.143h5.901v12.021c0 .517-.466.836-.971.836h-14.208c-.505 0-.893-.398-.893-.916v-11.942h5.823M11.385 3.143h5.631l.039-.064-2.097-2.079h-11.845l-2.097 2.079.039.064h5.631M11.714 3.143l-.932-2.143h-3.401l-1.025 2.143M11.714 3.143v4.286l-2.61-1.506-2.747 1.506v-4.286" stroke="#2F3035" stroke-width="1.5" stroke-miterlimit="10"/><path d="M10.986 11.714h-3.865c-.443 0-.765-.438-.765-.925v-.292c0-.536.362-.925.765-.925h3.824c.443 0 .765.438.765.925v.292c.04.536-.322.925-.725.925z" stroke="#2F3035" stroke-width="1.5" stroke-miterlimit="10"/></svg>
